img/arrow-60.svg

<svg fill="none" height="13" viewBox="0 0 16 13" width="16" xmlns="http://www.w3.org/2000/svg"><path d="m15.1446 7.07034c.3306-.33063.3306-.86669 0-1.19732l-5.38795-5.3879c-.33063-.330628-.86668-.330628-1.19731 0-.33063.330629-.33063.86668 0 1.19731l4.78926 4.78925-4.78926 4.78922c-.33063.3307-.33063.8667 0 1.1973.33063.3307.86668.3307 1.19731 0zm-14.144739-1.44529c-.46758 0-.846627.37905-.846627.84663s.379047.84663.846627.84663zm13.546039 0h-13.546039v1.69326h13.546039z" fill="#0080ff"/></svg>

<svg width="16" height="13" viewBox="0 0 16 13" fill="none" xmlns="http://www.w3.org/2000/svg">
<path d="M15.1446 7.07034C15.4752 6.73971 15.4752 6.20365 15.1446 5.87302L9.75665 0.48512C9.42602 0.154492 8.88997 0.154492 8.55934 0.48512C8.22871 0.815749 8.22871 1.3518 8.55934 1.68243L13.3486 6.47168L8.55934 11.2609C8.22871 11.5916 8.22871 12.1276 8.55934 12.4582C8.88997 12.7889 9.42602 12.7889 9.75665 12.4582L15.1446 7.07034ZM0.999861 5.62505C0.532281 5.62505 0.153234 6.0041 0.153234 6.47168C0.153234 6.93926 0.532281 7.31831 0.999861 7.31831V5.62505ZM14.5459 5.62505L0.999861 5.62505V7.31831L14.5459 7.31831V5.62505Z" fill="#0080FF"/>
</svg>
